X:1
T: Svens schottis
S: Utlärd av Kalle Almlöf
Z: Karin Arén
R:Schottis
M: 4/4
L: 1/8
K: Dm
A|:vd2 de f2 fd | ^cb a^g a2 e2 | A2 ^ce g2 ge | (fg) bg ua3 v(A | 
d2) de f2 fd | ^cb a^g a2 e2 | A2 ^ce aa gf |1 ue2 d2 d3 A :|2 e2 d2 d2 z2 |:
vfd AF D2 FA | u(df) ed ^c2 A2 | vGA BG cd cB | B2 A^G uA4 | 
vfd AF D2 FA | u(df) ed ^c2 A2 | vGA BG FA cG | (EG) ce ud4 :|

